X:1
T:Paddy O'Rafferty
M:6/8
L:1/8
Q:80
C:
S:Jig
K:HP
|: {gfg}f2A{g}A2{GdGe}A | \
{gf}g2f{g}ede | \
{gfg}f2A{g}A2{GdGe}A |
{g}dfe{g}dB{G}A | \
{gfg}f2A{g}A2{GdGe}A | \
{gf}g2f{g}efg |
agf{a}gfe | \
{g}dfe{g}dB{G}A :: \
{g}fA{GAG}A{g}eA{GAG}A |
{g}fA{GAG}A{g}edB | \
{g}fA{GAG}A{g}eA{GAG}A | \
{g}dfe{g}dB{G}A |
{g}fA{GAG}A{g}eA{GAG}A | \
{g}fA{GAG}A{g}efg | \
a2{GdG}a{fg}f2e |
{g}dfe{g}dB{G}A :: \
{g}fd{G}d{g}ed{G}d | \
{g}fd{G}d{g}edB |
{g}fd{G}d{g}ed{G}d | \
{g}dfe{g}dB{G}A | \
{g}fd{G}d{g}ed{G}d |
{g}fd{G}d{g}efg | \
a2{GdG}a{fg}f2e | \
{g}dfe{g}dB{G}A ::
aA{GAG}A{g}fA{GAG}A | \
{g}eA{GAG}A{g}efg | \
aA{GAG}A{g}fA{GAG}A |
{g}dfe{g}dB{G}A | \
aA{GAG}A{g}fA{GAG}A | \
{g}eA{GAG}A{g}efg |
a2{GdG}a{fg}f2e | \
{g}dfe{g}dB{G}A :|
